X:10
T:Vals efter Wernholm
T:(SvL Småland 10)
R:Vals
O:Tryserum, Småland
S:Anders Fredrik Andersson
B:Svenska Låtar Småland
M:3/4
L:1/8
K:A
A>c e3 c|A>c e2 {ga}g2|f>d f>g a2-|a2 g2 e2|
e>f e>d c>B|A2 c2 e>c|c2 B2 G2|A4 z2:|
|:B2 =c2 c>c|=c2 B2 B>B|A>B ^c>d e>f|g>f e>c e2|
B2 =c2 c>c|=c2 B2 B>B|A>B ^c>B A>G|A4 z2:|

